Papirus/64x64/apps/biglybt.svg

<?xml version="1.0" encoding="UTF-8" standalone="no"?>
<svg
   id="_图层_1"
   version="1.1"
   viewBox="0 0 64 64" width="64" height="64"
   sodipodi:docname="biglybt.svg"
   xml:space="preserve"
   inkscape:version="1.4 (e7c3feb100, 2024-10-09)"
   xmlns:inkscape="http://www.inkscape.org/namespaces/inkscape"
   xmlns:sodipodi="http://sodipodi.sourceforge.net/DTD/sodipodi-0.dtd"
   xmlns="http://www.w3.org/2000/svg"
   xmlns:svg="http://www.w3.org/2000/svg"><sodipodi:namedview
     id="namedview26"
     pagecolor="#505050"
     bordercolor="#eeeeee"
     borderopacity="1"
     inkscape:showpageshadow="0"
     inkscape:pageopacity="0"
     inkscape:pagecheckerboard="0"
     inkscape:deskcolor="#505050"
     inkscape:zoom="10.6875"
     inkscape:cx="32"
     inkscape:cy="28.912281"
     inkscape:window-width="1920"
     inkscape:window-height="939"
     inkscape:window-x="0"
     inkscape:window-y="34"
     inkscape:window-maximized="1"
     inkscape:current-layer="_图层_1" /><!-- Generator: Adobe Illustrator 29.0.1, SVG Export Plug-In . SVG Version: 2.1.0 Build 192)  --><defs
     id="defs6"><style
       id="style1">
      .st0 {
        fill-opacity: .5;
      }

      .st0, .st1, .st2, .st3, .st4, .st5, .st6, .st7 {
        fill: #fff;
      }

      .st8 {
        fill: #133c9a;
      }

      .st2, .st9 {
        display: none;
      }

      .st3 {
        fill-opacity: .2;
      }

      .st4 {
        fill-opacity: .9;
      }

      .st10 {
        fill: #3370ff;
      }

      .st11 {
        fill: url(#_未命名的渐变_3);
      }

      .st12 {
        fill: url(#_未命名的渐变);
      }

      .st5 {
        fill-opacity: .3;
      }

      .st6 {
        fill-opacity: 0;
      }

      .st7 {
        fill-opacity: .7;
      }

      .st13 {
        fill: #00d6b9;
      }

      .st14 {
        fill: url(#_未命名的渐变_2);
      }
    </style><radialGradient
       id="_未命名的渐变"
       data-name="未命名的渐变"
       cx="123.9"
       cy="-40.2"
       fx="123.9"
       fy="-40.2"
       r="59.4"
       gradientTransform="translate(-26.8 25.5) scale(.6 -.7)"
       gradientUnits="userSpaceOnUse"><stop
         offset="0"
         stop-color="#db202e"
         id="stop1" /><stop
         offset="1"
         stop-color="#e01b24"
         id="stop2" /></radialGradient><radialGradient
       id="_未命名的渐变_2"
       data-name="未命名的渐变 2"
       cx="67.6"
       cy="26.8"
       fx="67.6"
       fy="26.8"
       r="105.2"
       gradientTransform="translate(-26.6 25.3) scale(.6 -.7)"
       gradientUnits="userSpaceOnUse"><stop
         offset="0"
         stop-color="#ffb648"
         id="stop3" /><stop
         offset="1"
         stop-color="#ff7800"
         stop-opacity="0"
         id="stop4" /></radialGradient><radialGradient
       id="_未命名的渐变_3"
       data-name="未命名的渐变 3"
       cx="61.7"
       cy="18.6"
       fx="61.7"
       fy="18.6"
       r="68"
       gradientTransform="translate(-26.8 25.8) scale(.6 -.7)"
       gradientUnits="userSpaceOnUse"><stop
         offset="0"
         stop-color="#c64600"
         id="stop5" /><stop
         offset="1"
         stop-color="#a51d2d"
         id="stop6" /></radialGradient><style
       id="style1-2">
      .st0, .st1, .st2, .st3, .st4, .st5 {
        isolation: isolate;
      }

      .st0, .st1, .st6, .st7, .st5, .st8 {
        display: none;
      }

      .st0, .st3, .st4, .st5 {
        opacity: .2;
      }

      .st1 {
        opacity: .1;
      }

      .st1, .st9, .st2, .st4, .st5 {
        fill: #fff;
      }

      .st10 {
        fill: #3f3f3f;
      }

      .st2 {
        opacity: .3;
      }

      .st6 {
        fill: #505d6e;
      }

      .st11, .st8 {
        fill: #ffcca3;
      }

      .st12 {
        fill: #fed24c;
      }

      .st13 {
        fill: #c2352a;
      }
    </style></defs><path
     class="st1"
     d="M 47.5,64.1 H 13.8 C 6.2,64.1 0,57.8 0,50.3 V 13.7 C 0,6.2 6.2,0 13.7,0 H 50.3 C 57.8,0 64,6.2 64,13.7 V 50.3 C 64,57.8 57.8,64 50.3,64 h -2.9 0.1 z"
     id="path6"
     style="display:inline;opacity:1;fill:#e4e4e4;fill-opacity:1" /><g
     id="g27"
     transform="matrix(0.94350676,0,0,0.91792347,0.40027172,2.7054994)"><path
       style="opacity:0.2"
       d="M 17.041016,4.9994268 C 12.839987,8.2559544 9.9585579,12.230328 9.3144531,17.600989 9.1130393,18.627314 9.0044001,19.522597 9,20.341224 c -0.00308,1.577561 0.3689815,3.94812 1.042969,5.658203 h 0.0625 c 0.906026,2.935487 2.436921,5.659059 4.449219,8.003906 l -3.681641,-0.0039 c -4.6987579,-0.0044 -6.2776295,2.159746 -3.5058595,4.8125 L 28.511719,59.044349 c 2.769598,2.652741 7.198405,2.599417 9.839843,-0.115234 L 57.75,38.991615 c 2.641437,-2.714652 0.958306,-4.945313 -3.740234,-4.945313 l -3.541016,-0.0039 c 2.067414,-2.356244 3.64807,-5.095414 4.580078,-8.050781 0.04239,-2.36e-4 0.08254,2.49e-4 0.125,0 0.647797,-2.107351 0.826633,-3.204734 0.826172,-5.3711 -1.96e-4,-0.12908 -0.0072,-0.320362 -0.0098,-0.480469 7.04e-4,-0.06794 0.0059,-0.135085 0.0059,-0.203125 h 0.002 c 0,-6.408486 -3.78293,-11.2229556 -8.546875,-14.9257814 -10.545924,0 -19.562109,-0.00853 -30.410156,-0.011719 z"
       id="path1" /><path
       style="fill:#3b85df"
       d="m 23.897815,33.015481 17.084619,0.01769 13.026884,0.01336 c 4.69854,0 6.382022,2.230523 3.740585,4.945174 L 38.351858,57.929254 c -2.641438,2.714651 -7.070621,2.767704 -9.840219,0.114963 L 7.3671196,37.812543 c -2.77177,-2.652754 -1.1927734,-4.816957 3.5059844,-4.812535 z"
       id="path2" /><path
       style="fill:#3b85df"
       d="m 55.99681,18.936601 c 0,11.974725 -10.925211,22.384042 -23.548791,22.384042 C 19.826629,41.320643 9.176,30.913508 9.176,18.936601 9.176,12.355739 12.253795,7.7115529 17.041823,3.999999 27.88987,4.003189 36.905459,4.010905 47.451383,4.010905 52.215328,7.7137309 55.999,12.528111 55.999,18.936597 Z"
       id="path3" /><path
       style="opacity:0.2"
       d="M 27.9375,13.99984 C 26.034499,14.00304 24.101421,16.636969 24,18.927574 v 2.882813 c 5.8e-4,3.30289 1.769146,5.209745 3.9375,5.189453 3.504225,-5e-6 7.259448,3e-6 10.763672,0 0.534017,0.0034 1.2753,-0.434139 1.273437,-1.300781 L 40,15.265465 c -0.0031,-0.812757 -0.807656,-1.233238 -1.298828,-1.257813 -3.756742,0.02699 -7.244959,-0.0053 -10.763672,-0.0078 z m -17.9921875,1 C 9.2955649,17.289426 9.0077224,18.904907 9,20.341637 c -0.00308,1.577561 0.3689817,3.94812 1.042969,5.658203 h 12.228515 c 0,0 -0.719105,-0.739585 -1.009765,-2.134766 -0.290658,-1.395183 -0.282474,-4.640245 -0.02539,-6.142578 0.256981,-1.500367 1.035156,-2.708984 1.035156,-2.708984 z m 45.2285155,0 c -1.827926,0.0036 -9.785837,0.03834 -10.976562,0.03516 h -0.0039 c -0.443649,0.05702 -1.024408,0.301993 -1.185547,1.058594 -0.01604,2.710669 -0.0032,6.070581 -0.0078,8.78125 0.07683,0.809296 0.693073,1.032605 1.128906,1.105469 3.953762,0.0016 7.362407,0.03332 11.044922,0.01172 C 55.821625,23.884683 56.000461,22.7873 56,20.620934 55.9984,19.569411 55.96097,17.44161 55.173828,14.99984 Z m -26.220703,2 c 1.994284,-0.005 4.074702,0.0133 6.09375,0.01953 C 35.4524,17.020572 36,16.994766 36,18.034996 v 0.970703 c -0.578832,-0.003 -1.179837,-0.007 -1.617188,-0.01172 -0.621124,0.03846 -1.265744,-0.101397 -1.865234,0.08594 C 32.141152,19.3222 31.997599,19.88237 32,20.517419 c -0.0014,0.948564 0.581172,1.496314 0.986328,1.482422 l 2.101563,-0.002 c 0.257747,0.0021 0.580664,0.0035 0.912109,0.0039 v 1.015625 c 0,0.995946 -0.763672,0.982422 -0.763672,0.982422 -0.749333,0 -4.407013,4.63e-4 -6.283203,0 C 28.520363,23.999702 27.99943,23.475633 28,22.429528 c 0.0021,-1.943875 0.0021,-2.201287 0,-4.074219 -9.52e-4,-0.833787 0.535601,-1.354437 0.953125,-1.355469 z m 18.546875,2 a 1.5,1.5 0 0 1 1.5,1.5 1.5,1.5 0 0 1 -1.5,1.5 1.5,1.5 0 0 1 -1.5,-1.5 1.5,1.5 0 0 1 1.5,-1.5 z m 5,0 a 1.5,1.5 0 0 1 1.5,1.5 1.5,1.5 0 0 1 -1.5,1.5 1.5,1.5 0 0 1 -1.5,-1.5 1.5,1.5 0 0 1 1.5,-1.5 z"
       id="path4" /><path
       style="fill:#ffffff"
       d="M 27.9375,13 C 26.034499,13.0032 24.101421,15.637129 24,17.927734 v 2.882813 c 5.8e-4,3.30289 1.769146,5.209745 3.9375,5.189453 3.504225,-5e-6 7.259448,3e-6 10.763672,0 0.534017,0.0034 1.2753,-0.434139 1.273437,-1.300781 L 40,14.265625 C 39.9969,13.452868 39.192344,13.032387 38.701172,13.007812 34.94443,13.034802 31.456213,13.0025 27.9375,13 Z M 9.9453125,14 C 9.2955649,16.289586 9.0077224,17.905067 9,19.341797 8.99692,20.919358 9.3689817,23.289917 10.042969,25 h 12.228515 c 0,0 -0.719105,-0.739585 -1.009765,-2.134766 -0.290658,-1.395183 -0.282474,-4.640245 -0.02539,-6.142578 0.256981,-1.500367 1.035156,-2.708984 1.035156,-2.708984 z m 45.2285155,0 c -1.827926,0.0036 -9.785837,0.03834 -10.976562,0.03516 h -0.0039 c -0.443649,0.05702 -1.024408,0.301993 -1.185547,1.058594 -0.01604,2.710669 -0.0032,6.070581 -0.0078,8.78125 0.07683,0.809296 0.693073,1.032605 1.128906,1.105469 3.953762,0.0016 7.362407,0.03332 11.044922,0.01172 C 55.821625,22.884843 56.000461,21.78746 56,19.621094 55.9984,18.569571 55.96097,16.44177 55.173828,14 Z m -26.220703,2 c 1.994284,-0.005 4.074702,0.0133 6.09375,0.01953 C 35.4524,16.020732 36,15.994926 36,17.035156 v 0.970703 c -0.578832,-0.003 -1.179837,-0.007 -1.617188,-0.01172 -0.621124,0.03846 -1.265744,-0.101397 -1.865234,0.08594 C 32.141152,18.322359 31.997599,18.882529 32,19.517578 31.9986,20.466142 32.581172,21.013892 32.986328,21 l 2.101563,-0.002 C 35.345638,21.0001 35.668555,21.0015 36,21.0019 v 1.015625 C 36,23.013524 35.236328,23 35.236328,23 34.486995,23 30.829315,23.000463 28.953125,23 28.520363,22.999862 27.99943,22.475793 28,21.429688 28.0021,19.485813 28.0021,19.228401 28,17.355469 27.999048,16.521682 28.535601,16.001032 28.953125,16 Z M 47.5,18 A 1.5,1.5 0 0 1 49,19.5 1.5,1.5 0 0 1 47.5,21 1.5,1.5 0 0 1 46,19.5 1.5,1.5 0 0 1 47.5,18 Z m 5,0 A 1.5,1.5 0 0 1 54,19.5 1.5,1.5 0 0 1 52.5,21 1.5,1.5 0 0 1 51,19.5 1.5,1.5 0 0 1 52.5,18 Z"
       id="path5" /><path
       style="opacity:0.2;fill:#ffffff"
       d="m 17.041016,4 c -4.788028,3.7115539 -7.8652348,8.356638 -7.8652348,14.9375 1e-7,0.182854 0.00874,0.364785 0.013672,0.546875 C 9.329077,13.144935 12.364789,8.6248882 17.041016,5 c 10.848047,0.00319 19.864232,0.011719 30.410156,0.011719 4.651436,3.6153768 8.358314,8.294628 8.53125,14.478515 0.0052,-0.184274 0.01367,-0.367675 0.01367,-0.552734 h 0.002 c 0,-6.408486 -3.78293,-11.2229552 -8.546875,-14.925781 C 36.905248,4.0117188 27.889063,4.00319 17.041016,4 Z M 10.873047,33 C 7.3681119,32.996702 5.6003837,34.201387 6.078125,35.914062 6.4261951,34.752484 8.1015402,33.997405 10.873047,34 l 3.681641,0.0039 c -0.276891,-0.322648 -0.530542,-0.663547 -0.789063,-1 z m 40.419922,0.04297 c -0.266533,0.339296 -0.538871,0.674787 -0.824219,1 l 3.541016,0.0039 c 2.843232,0 4.573218,0.819786 4.917968,2.066406 0.45647,-1.792891 -1.368642,-3.066406 -4.917968,-3.066406 z"
       id="path6-5" /></g></svg>

<svg xmlns="http://www.w3.org/2000/svg" width="64" height="64" version="1.1">
 <path style="opacity:0.2" d="M 17.041016,4.9994268 C 12.839987,8.2559544 9.9585579,12.230328 9.3144531,17.600989 9.1130393,18.627314 9.0044001,19.522597 9,20.341224 c -0.00308,1.577561 0.3689815,3.94812 1.042969,5.658203 h 0.0625 c 0.906026,2.935487 2.436921,5.659059 4.449219,8.003906 l -3.681641,-0.0039 c -4.6987579,-0.0044 -6.2776295,2.159746 -3.5058595,4.8125 L 28.511719,59.044349 c 2.769598,2.652741 7.198405,2.599417 9.839843,-0.115234 L 57.75,38.991615 c 2.641437,-2.714652 0.958306,-4.945313 -3.740234,-4.945313 l -3.541016,-0.0039 c 2.067414,-2.356244 3.64807,-5.095414 4.580078,-8.050781 0.04239,-2.36e-4 0.08254,2.49e-4 0.125,0 C 55.821625,23.88427 56.000461,22.786887 56,20.620521 c -1.96e-4,-0.12908 -0.0072,-0.320362 -0.0098,-0.480469 7.04e-4,-0.06794 0.0059,-0.135085 0.0059,-0.203125 h 0.002 c 0,-6.408486 -3.78293,-11.2229556 -8.546875,-14.9257814 -10.545924,0 -19.562109,-0.00853 -30.410156,-0.011719 z"/>
 <path style="fill:#3b85df" d="m 23.897815,33.015481 17.084619,0.01769 13.026884,0.01336 c 4.69854,0 6.382022,2.230523 3.740585,4.945174 L 38.351858,57.929254 c -2.641438,2.714651 -7.070621,2.767704 -9.840219,0.114963 L 7.3671196,37.812543 c -2.77177,-2.652754 -1.1927734,-4.816957 3.5059844,-4.812535 z"/>
 <path style="fill:#3b85df" d="m 55.99681,18.936601 c 0,11.974725 -10.925211,22.384042 -23.548791,22.384042 C 19.826629,41.320643 9.176,30.913508 9.176,18.936601 9.176,12.355739 12.253795,7.7115529 17.041823,3.999999 27.88987,4.003189 36.905459,4.010905 47.451383,4.010905 52.215328,7.7137309 55.999,12.528111 55.999,18.936597 Z"/>
 <path style="opacity:0.2" d="M 27.9375,13.99984 C 26.034499,14.00304 24.101421,16.636969 24,18.927574 v 2.882813 c 5.8e-4,3.30289 1.769146,5.209745 3.9375,5.189453 3.504225,-5e-6 7.259448,3e-6 10.763672,0 0.534017,0.0034 1.2753,-0.434139 1.273437,-1.300781 L 40,15.265465 c -0.0031,-0.812757 -0.807656,-1.233238 -1.298828,-1.257813 -3.756742,0.02699 -7.244959,-0.0053 -10.763672,-0.0078 z m -17.9921875,1 C 9.2955649,17.289426 9.0077224,18.904907 9,20.341637 c -0.00308,1.577561 0.3689817,3.94812 1.042969,5.658203 h 12.228515 c 0,0 -0.719105,-0.739585 -1.009765,-2.134766 -0.290658,-1.395183 -0.282474,-4.640245 -0.02539,-6.142578 0.256981,-1.500367 1.035156,-2.708984 1.035156,-2.708984 z m 45.2285155,0 c -1.827926,0.0036 -9.785837,0.03834 -10.976562,0.03516 h -0.0039 c -0.443649,0.05702 -1.024408,0.301993 -1.185547,1.058594 -0.01604,2.710669 -0.0032,6.070581 -0.0078,8.78125 0.07683,0.809296 0.693073,1.032605 1.128906,1.105469 3.953762,0.0016 7.362407,0.03332 11.044922,0.01172 C 55.821625,23.884683 56.000461,22.7873 56,20.620934 55.9984,19.569411 55.96097,17.44161 55.173828,14.99984 Z m -26.220703,2 c 1.994284,-0.005 4.074702,0.0133 6.09375,0.01953 C 35.4524,17.020572 36,16.994766 36,18.034996 v 0.970703 c -0.578832,-0.003 -1.179837,-0.007 -1.617188,-0.01172 -0.621124,0.03846 -1.265744,-0.101397 -1.865234,0.08594 -0.376426,0.242281 -0.519979,0.802451 -0.517578,1.4375 -0.0014,0.948564 0.581172,1.496314 0.986328,1.482422 l 2.101563,-0.002 c 0.257747,0.0021 0.580664,0.0035 0.912109,0.0039 v 1.015625 c 0,0.995946 -0.763672,0.982422 -0.763672,0.982422 -0.749333,0 -4.407013,4.63e-4 -6.283203,0 C 28.520363,23.999702 27.99943,23.475633 28,22.429528 c 0.0021,-1.943875 0.0021,-2.201287 0,-4.074219 -9.52e-4,-0.833787 0.535601,-1.354437 0.953125,-1.355469 z m 18.546875,2 a 1.5,1.5 0 0 1 1.5,1.5 1.5,1.5 0 0 1 -1.5,1.5 1.5,1.5 0 0 1 -1.5,-1.5 1.5,1.5 0 0 1 1.5,-1.5 z m 5,0 a 1.5,1.5 0 0 1 1.5,1.5 1.5,1.5 0 0 1 -1.5,1.5 1.5,1.5 0 0 1 -1.5,-1.5 1.5,1.5 0 0 1 1.5,-1.5 z"/>
 <path style="fill:#ffffff" d="M 27.9375 13 C 26.034499 13.0032 24.101421 15.637129 24 17.927734 L 24 20.810547 C 24.00058 24.113437 25.769146 26.020292 27.9375 26 C 31.441725 25.999995 35.196948 26.000003 38.701172 26 C 39.235189 26.0034 39.976472 25.565861 39.974609 24.699219 L 40 14.265625 C 39.9969 13.452868 39.192344 13.032387 38.701172 13.007812 C 34.94443 13.034802 31.456213 13.0025 27.9375 13 z M 9.9453125 14 C 9.2955649 16.289586 9.0077224 17.905067 9 19.341797 C 8.99692 20.919358 9.3689817 23.289917 10.042969 25 L 22.271484 25 C 22.271484 25 21.552379 24.260415 21.261719 22.865234 C 20.971061 21.470051 20.979245 18.224989 21.236328 16.722656 C 21.493309 15.222289 22.271484 14.013672 22.271484 14.013672 L 9.9453125 14 z M 55.173828 14 C 53.345902 14.0036 45.387991 14.038336 44.197266 14.035156 L 44.193359 14.035156 C 43.74971 14.092176 43.168951 14.337149 43.007812 15.09375 C 42.991774 17.804419 43.0046 21.164331 43 23.875 C 43.07683 24.684296 43.693073 24.907605 44.128906 24.980469 C 48.082668 24.982069 51.491313 25.013787 55.173828 24.992188 C 55.821625 22.884843 56.000461 21.78746 56 19.621094 C 55.9984 18.569571 55.96097 16.44177 55.173828 14 z M 28.953125 16 C 30.947409 15.995 33.027827 16.013301 35.046875 16.019531 C 35.4524 16.020732 36 15.994926 36 17.035156 L 36 18.005859 C 35.421168 18.002859 34.820163 17.998861 34.382812 17.994141 C 33.761688 18.032601 33.117068 17.892744 32.517578 18.080078 C 32.141152 18.322359 31.997599 18.882529 32 19.517578 C 31.9986 20.466142 32.581172 21.013892 32.986328 21 L 35.087891 20.998047 C 35.345638 21.000147 35.668555 21.001553 36 21.001953 L 36 22.017578 C 36 23.013524 35.236328 23 35.236328 23 C 34.486995 23 30.829315 23.000463 28.953125 23 C 28.520363 22.999862 27.99943 22.475793 28 21.429688 C 28.0021 19.485813 28.0021 19.228401 28 17.355469 C 27.999048 16.521682 28.535601 16.001032 28.953125 16 z M 47.5 18 A 1.5 1.5 0 0 1 49 19.5 A 1.5 1.5 0 0 1 47.5 21 A 1.5 1.5 0 0 1 46 19.5 A 1.5 1.5 0 0 1 47.5 18 z M 52.5 18 A 1.5 1.5 0 0 1 54 19.5 A 1.5 1.5 0 0 1 52.5 21 A 1.5 1.5 0 0 1 51 19.5 A 1.5 1.5 0 0 1 52.5 18 z"/>
 <path style="fill:#ffffff;opacity:0.2" d="M 17.041016 4 C 12.252988 7.7115539 9.1757812 12.356638 9.1757812 18.9375 C 9.1757813 19.120354 9.1845192 19.302285 9.1894531 19.484375 C 9.329077 13.144935 12.364789 8.6248882 17.041016 5 C 27.889063 5.003189 36.905248 5.0117188 47.451172 5.0117188 C 52.102608 8.6270956 55.809486 13.306347 55.982422 19.490234 C 55.987607 19.30596 55.996094 19.122559 55.996094 18.9375 L 55.998047 18.9375 C 55.998047 12.529014 52.215117 7.7145446 47.451172 4.0117188 C 36.905248 4.0117188 27.889063 4.00319 17.041016 4 z M 10.873047 33 C 7.3681119 32.996702 5.6003837 34.201387 6.078125 35.914062 C 6.4261951 34.752484 8.1015402 33.997405 10.873047 34 L 14.554688 34.003906 C 14.277797 33.681258 14.024146 33.340359 13.765625 33.003906 L 10.873047 33 z M 51.292969 33.042969 C 51.026436 33.382265 50.754098 33.717756 50.46875 34.042969 L 54.009766 34.046875 C 56.852998 34.046875 58.582984 34.866661 58.927734 36.113281 C 59.384204 34.32039 57.559092 33.046875 54.009766 33.046875 L 51.292969 33.042969 z"/>
</svg>
